ubuntu-mono-light/status/24/network-transmit-receive.svg

<?xml version="1.0" encoding="UTF-8" standalone="no"?>
<!-- Created with Inkscape (http://www.inkscape.org/) -->

<svg
   xmlns:dc="http://purl.org/dc/elements/1.1/"
   xmlns:cc="http://creativecommons.org/ns#"
   xmlns:rdf="http://www.w3.org/1999/02/22-rdf-syntax-ns#"
   xmlns:svg="http://www.w3.org/2000/svg"
   xmlns="http://www.w3.org/2000/svg"
   xmlns:sodipodi="http://sodipodi.sourceforge.net/DTD/sodipodi-0.dtd"
   xmlns:inkscape="http://www.inkscape.org/namespaces/inkscape"
   version="1.0"
   width="24"
   height="24"
   id="svg3200"
   inkscape:version="0.48.0 r9654"
   sodipodi:docname="network-transmit-receive.svg">
  <sodipodi:namedview
     pagecolor="#ffffff"
     bordercolor="#666666"
     borderopacity="1"
     objecttolerance="10"
     gridtolerance="10"
     guidetolerance="10"
     inkscape:pageopacity="0"
     inkscape:pageshadow="2"
     inkscape:window-width="1280"
     inkscape:window-height="753"
     id="namedview7"
     showgrid="false"
     inkscape:zoom="13.227273"
     inkscape:cx="11"
     inkscape:cy="11.793814"
     inkscape:window-x="0"
     inkscape:window-y="24"
     inkscape:window-maximized="1"
     inkscape:current-layer="svg3200" />
  <metadata
     id="metadata8">
    <rdf:RDF>
      <cc:Work
         rdf:about="">
        <dc:format>image/svg+xml</dc:format>
        <dc:type
           rdf:resource="http://purl.org/dc/dcmitype/StillImage" />
        <dc:title></dc:title>
      </cc:Work>
    </rdf:RDF>
  </metadata>
  <defs
     id="defs3202" />
  <path
     d="m 21,17 -5,5 -5,-5 3,0 0,-7 4,0 0,7 3,0 z m -8,-7 -5,-5 -5,5 3,0 0,7 4,0 0,-7 3,0 z"
     id="path4348-1-9"
     style="opacity:0.3;fill:#ffffff;fill-opacity:1;fill-rule:evenodd;stroke:none;stroke-width:1.69999993;marker:none;visibility:visible;display:inline;overflow:visible;enable-background:accumulate"
     inkscape:connector-curvature="0" />
  <path
     d="m 21,16 -5,5 -5,-5 3,0 0,-7 4,0 0,7 3,0 z M 13,9 8,4 3,9 l 3,0 0,7 4,0 0,-7 3,0 z"
     id="path4348-1"
     style="fill:#3c3c3c;fill-opacity:1;fill-rule:evenodd;stroke:none;stroke-width:1.69999993;marker:none;visibility:visible;display:inline;overflow:visible;enable-background:accumulate"
     inkscape:connector-curvature="0" />
</svg>

<?xml version="1.0" encoding="UTF-8" standalone="no"?>
<!-- Created with Inkscape (http://www.inkscape.org/) -->
<svg
   xmlns:svg="http://www.w3.org/2000/svg"
   xmlns="http://www.w3.org/2000/svg"
   version="1.0"
   width="24"
   height="24"
   id="svg3200">
  <defs
     id="defs3202" />
  <g
     id="layer1">
    <path
       d="M 8,3 L 1,10 L 5,10 L 5,17 L 11,17 L 16,22 L 23,15 L 19,15 L 19,8 L 13,8 L 8,3 z M 11,10 L 13,10 L 13,15 L 11,15 L 11,10 z"
       id="path2427"
       style="opacity:0.6;fill:#eae3d0;fill-opacity:1;fill-rule:evenodd;stroke:none;stroke-width:1.69999993;stroke-linecap:round;stroke-linejoin:miter;marker:none;marker-start:none;marker-mid:none;marker-end:none;stroke-miterlimit:4;stroke-dasharray:none;stroke-dashoffset:0;stroke-opacity:1;visibility:visible;display:inline;overflow:visible;enable-background:accumulate" />
    <path
       d="M 21,16 L 16,21 L 11,16 L 14,16 L 14,9 L 18,9 L 18,16 L 21,16 z M 13,9 L 8,4 L 3,9 L 6,9 L 6,16 L 10,16 L 10,9 L 13,9 z"
       id="path4348-1"
       style="opacity:1;fill:#3a3935;fill-opacity:1;fill-rule:evenodd;stroke:none;stroke-width:1;stroke-linecap:butt;stroke-linejoin:miter;marker:none;marker-start:none;marker-mid:none;marker-end:none;stroke-miterlimit:4;stroke-dasharray:none;stroke-dashoffset:0;stroke-opacity:1;visibility:visible;display:inline;overflow:visible;enable-background:accumulate" />
  </g>
</svg>
